X:268
T:Cuz Teehan's
M:4/4
L:1/8
R:reel
N:Learned from Kira Ott
N:Set is ~ - Alley Bennett's
Z:Michael Abraham Shulman
K:D
F|E2EF A2AB|ceec BAFE|f2ec ABBA|ecBA FAAF|
E2EF A2AB|ceec BAFE|f2ec ABBA|ecBc A3:|
f|ecef a2af|ecBA FAAB|cBBA cBBA|ceBA FAAf|
ecef a2af|ecBA FAAB|cBBA cBBA|ceBc A3:|
